/*
 * toon shader
 * author: gnya
 */

#include "node_math.h"

shader sun_light(
    point Rotation = point(0.0, 0.0, 0.0),
    float Energy = 1.0,

    output vector Light = vector(0.0, 0.0, 0.0),
    output vector UV = vector(0.0, 0.0, 0.0)
) {
    matrix mat = transpose(euler_to_mat(Rotation));
    vector z_axis = vector(mat[0][2], mat[1][2], mat[2][2]);

    float strength = Energy / M_PI;

    Light = z_axis * strength;
}
